X: 6332
T: Carthy's March
R: hornpipe
M: 4/4
K: Gmajor
|:(3DEF|G2 G2 G2 DE|=F2 E=F DCB,C|DG G2 G2 AB|
c2 Bc A2 (3ABc|d2 d2 d2 ed|c2 (3BcB AFDE|=F2 (3E=FE DCB,C|
D2 GA B2 (3 cBA|G2D2 C2 B,G,|1 A,2 A,2 A,2:|2 A,2 A,2 A,2 (3efg||
a2 a2 a4|g2 ef g4|a2 fe d2 ef|g2 g2 g4|
f2 fe d^cAG|A2 A2 A4|f2 fe d^cAG|A2 eAfA gA|
a2 a2 a4|g2 ef g4|a2 fe d2 ef|g2g2g4|
=f2 =fe dcAG|A_BAG A4|fed^c AGA^c|d2 d2 d2||

